Printex-remake/img/icons/catalog_sliced/12.svg

<svg width="127" height="81" viewBox="0 0 127 81" fill="none" xmlns="http://www.w3.org/2000/svg">
<g clip-path="url(#clip0)">
<path d="M77.8851 1L125.878 24.9952L112.414 32.7682L77.8851 1Z" fill="#C7E0ED"/>
<path d="M106.101 41.5212C102.945 45.1621 96.5515 47.3741 91.8204 46.4617C87.0893 45.5494 98.098 44.2659 101.254 40.625C104.41 36.9841 98.5178 32.3645 103.249 33.2768C107.98 34.1892 109.257 37.8803 106.101 41.5212Z" fill="#C7E0ED"/>
<path d="M63.6955 24.5375L4.38497 59.0001L40.2419 79.8552L99.5524 45.3926L102.826 42.1408C104.937 39.7289 105.967 36.6134 106.218 35.3572L106.595 34.6034C105.69 31.287 107.474 28.1967 108.479 27.0661C111.193 22.5436 114.132 22.1668 115.263 22.5436L82.5909 3.19269C80.179 1.68522 78.571 1.55961 78.0685 1.68524C75.958 1.68524 73.6717 4.19772 72.7924 5.45396C70.5311 7.71517 70.1542 14.4988 70.1542 14.8756C69.8527 18.4936 65.7228 22.8244 63.6955 24.5375Z" fill="#D4EEFC"/>
<circle r="8.7243" transform="matrix(0.98191 0.18935 -0.654985 0.755642 116.666 30.2444)" fill="#C7E0ED"/>
<path d="M61.6952 23.5375L0.443359 58.8987L38.3003 80.7538L99.5522 45.3926" stroke="black" stroke-linejoin="bevel"/>
<path d="M77.9524 0.685235L114.679 22.1635" stroke="black" stroke-linejoin="bevel"/>
<path d="M106.288 33.4725C106.288 37.843 103.219 43.1576 99.4343 45.3429" stroke="black" stroke-linejoin="bevel"/>
<path d="M68.531 10.8604C68.5308 15.6591 65.1874 21.4795 61.0632 23.8608" stroke="black" stroke-linejoin="bevel"/>
<path d="M106.219 33.6601C106.219 29.7058 108.995 24.8974 112.419 22.9201" stroke="black" stroke-linejoin="bevel"/>
<path d="M68.531 11.1027C68.5312 7.49764 71.0621 3.11389 74.1841 1.31128C75.7481 0.408233 77.1637 0.324282 78.1871 0.91863" stroke="black" stroke-linejoin="bevel"/>
<circle r="6.52747" transform="matrix(0.86601 -0.500028 -3.18907e-05 1 111.871 29.6971)" stroke="black" stroke-linejoin="bevel"/>
<circle r="1.82302" transform="matrix(0.86601 -0.500028 -3.18907e-05 1 111.871 29.6971)" stroke="black" stroke-linejoin="bevel"/>
<rect width="27.7018" height="13.3943" transform="matrix(0.866041 -0.499972 0.866041 0.499972 15.3848 55.8501)" fill="white" stroke="black" stroke-linejoin="bevel"/>
<path d="M55.3756 52L31.3848 65.8501" stroke="black" stroke-linejoin="bevel"/>
<path d="M58.3756 55L34.3848 68.8501" stroke="black" stroke-linejoin="bevel"/>
<path d="M65.3847 43.8502L79.6798 35.8527C82.4442 34.3061 84.5383 32.4051 85.7923 30.304L87.2848 27.8031L98.8848 34.4998L97.3923 37.0007C96.1383 39.1019 94.0442 41.0029 91.2798 42.5495L76.9847 50.547L65.3847 43.8502Z" fill="white" stroke="black" stroke-linejoin="bevel"/>
<path d="M83.2331 25.0001L81.7405 27.501C80.4866 29.6022 78.3925 31.5031 75.628 33.0497L61.333 41.0472" stroke="black" stroke-linejoin="bevel"/>
<path d="M79.2331 23.0001L77.7405 25.501C76.4866 27.6022 74.3925 29.5031 71.628 31.0497L57.333 39.0472" stroke="black" stroke-linejoin="bevel"/>
</g>
<defs>
<clipPath id="clip0">
<rect width="129" height="98" fill="white" transform="translate(-2 -9)"/>
</clipPath>
</defs>
</svg>

<svg width="127" height="81" fill="none" xmlns="http://www.w3.org/2000/svg"><g clip-path="url(#clip0)"><path d="M77.885 1l47.993 23.995-13.464 7.773L77.885 1zm28.216 40.521c-3.156 3.641-9.55 5.853-14.28 4.94-4.732-.912 6.277-2.195 9.433-5.836 3.156-3.64-2.736-8.26 1.995-7.348 4.731.912 6.008 4.603 2.852 8.244z" fill="#C7E0ED"/><path d="M63.696 24.538L4.385 59l35.857 20.855 59.31-34.462 3.274-3.252c2.111-2.412 3.141-5.528 3.392-6.784l.377-.754c-.905-3.316.879-6.406 1.884-7.537 2.714-4.522 5.653-4.9 6.784-4.522L82.591 3.193c-2.412-1.508-4.02-1.633-4.522-1.508-2.111 0-4.397 2.513-5.277 3.769-2.26 2.261-2.638 9.045-2.638 9.422-.301 3.618-4.431 7.948-6.458 9.662z" fill="#D4EEFC"/><circle r="8.724" transform="matrix(.98191 .18935 -.65499 .75564 116.666 30.244)" fill="#C7E0ED"/><path d="M61.695 23.538L.443 58.898 38.3 80.755l61.252-35.361M77.952.685l36.727 21.479m-8.391 11.308c0 4.371-3.069 9.686-6.854 11.87M68.531 10.86c0 4.8-3.344 10.62-7.468 13m45.156 9.8c0-3.954 2.776-8.763 6.2-10.74" stroke="#000" stroke-linejoin="bevel"/><path d="M68.531 11.103c0-3.605 2.531-7.99 5.653-9.792 1.564-.903 2.98-.987 4.003-.392" stroke="#000" stroke-linejoin="bevel"/><circle r="6.527" transform="matrix(.86601 -.50003 -.00003 1 111.871 29.697)" stroke="#000" stroke-linejoin="bevel"/><circle r="1.823" transform="matrix(.86601 -.50003 -.00003 1 111.871 29.697)" stroke="#000" stroke-linejoin="bevel"/><path transform="scale(1.22477 .70707) rotate(-45 101.628 24.331)" fill="#fff" stroke="#000" stroke-linejoin="bevel" d="M0 0h27.702v13.394H0z"/><path d="M55.376 52L31.385 65.85M58.376 55L34.385 68.85" stroke="#000" stroke-linejoin="bevel"/><path d="M65.385 43.85l14.295-7.997c2.764-1.547 4.858-3.448 6.112-5.549l1.493-2.5 11.6 6.696-1.493 2.5c-1.254 2.102-3.348 4.003-6.112 5.55l-14.295 7.997-11.6-6.697z" fill="#fff" stroke="#000" stroke-linejoin="bevel"/><path d="M83.233 25l-1.493 2.501c-1.253 2.101-3.347 4.002-6.112 5.549l-14.295 7.997M79.233 23l-1.493 2.501c-1.253 2.101-3.347 4.002-6.112 5.549l-14.295 7.997" stroke="#000" stroke-linejoin="bevel"/></g><defs><clipPath id="clip0"><path fill="#fff" transform="translate(-2 -9)" d="M0 0h129v98H0z"/></clipPath></defs></svg>
